src/drupal/drupal-black.svg

<svg xmlns="http://www.w3.org/2000/svg" width="128" height="128"><path d="M81.418 38.875c-4.085-2.543-7.938-3.545-11.792-6.089-2.389-1.618-5.703-5.472-8.478-8.786-.539 5.318-2.158 7.476-4.007 9.017-3.931 3.083-6.397 4.008-9.789 5.858-2.851 1.464-18.342 10.713-18.342 30.597s16.724 34.528 35.298 34.528 34.682-13.488 34.682-33.911c0-20.424-15.105-29.673-17.572-31.214zm.445 57.872c-.385.386-3.931 2.852-8.092 3.237-4.162.385-9.788.617-13.179-2.466-.539-.54-.385-1.311 0-1.619.385-.308.694-.539 1.156-.539.462 0 .386 0 .616.154 1.542 1.233 3.854 2.235 8.786 2.235s8.401-1.387 9.942-2.544c.694-.539 1.002-.077 1.079.231.078.309.232.771-.308 1.311zm-13.487-7.014c.848-.771 2.235-2.004 3.545-2.543 1.31-.539 2.004-.463 3.237-.463s2.543.077 3.468.694c.925.617 1.464 2.004 1.773 2.775.308.771 0 1.233-.617 1.541-.54.308-.616.154-1.156-.848-.54-1.002-1.002-2.004-3.7-2.004-2.697 0-3.545.925-4.855 2.004-1.31 1.079-1.773 1.464-2.235.848-.462-.616-.307-1.233.54-2.004zm20.424.617c-2.775-.231-8.324-8.863-11.869-9.017-4.47-.154-14.181 9.325-21.811 9.325-4.624 0-6.011-.694-7.553-1.695-2.312-1.619-3.468-4.085-3.391-7.476.077-6.012 5.703-11.638 12.794-11.715 9.017-.077 15.26 8.94 19.807 8.863 3.853-.077 11.252-7.63 14.875-7.63 3.854 0 4.933 4.008 4.933 6.397 0 2.389-.771 6.705-2.62 9.403-1.851 2.697-3.007 3.699-5.165 3.545z"/></svg>

<?xml version="1.0" encoding="UTF-8" standalone="no"?>
<!-- Created with Inkscape (http://www.inkscape.org/) -->

<svg
   xmlns:dc="http://purl.org/dc/elements/1.1/"
   xmlns:cc="http://creativecommons.org/ns#"
   xmlns:rdf="http://www.w3.org/1999/02/22-rdf-syntax-ns#"
   xmlns:svg="http://www.w3.org/2000/svg"
   xmlns="http://www.w3.org/2000/svg"
   xmlns:inkscape="http://www.inkscape.org/namespaces/inkscape"
   version="1.1"
   width="128"
   height="128"
   id="svg2">
  <metadata
     id="metadata10">
    <rdf:RDF>
      <cc:Work
         rdf:about="">
        <dc:format>image/svg+xml</dc:format>
        <dc:type
           rdf:resource="http://purl.org/dc/dcmitype/StillImage" />
      </cc:Work>
    </rdf:RDF>
  </metadata>
  <defs
     id="defs8" />
  <path
     d="M 81.418,38.875 C 77.333,36.332 73.48,35.33 69.626,32.786 67.237,31.168 63.923,27.314 61.148,24 60.609,29.318 58.99,31.476 57.141,33.017 53.21,36.1 50.744,37.025 47.352,38.875 44.501,40.339 29.01,49.588 29.01,69.472 29.01,89.356 45.734,104 64.308,104 82.882,104 98.99,90.512 98.99,70.089 98.99,49.665 83.885,40.416 81.418,38.875 z m 0.445,57.872 c -0.385,0.386 -3.931,2.852 -8.092,3.237 -4.162,0.385 -9.788,0.617 -13.179,-2.466 -0.539,-0.54 -0.385,-1.311 0,-1.619 0.385,-0.308 0.694,-0.539 1.156,-0.539 0.462,0 0.386,0 0.616,0.154 1.542,1.233 3.854,2.235 8.786,2.235 4.932,0 8.401,-1.387 9.942,-2.544 0.694,-0.539 1.002,-0.077 1.079,0.231 0.078,0.309 0.232,0.771 -0.308,1.311 z M 68.376,89.733 c 0.848,-0.771 2.235,-2.004 3.545,-2.543 1.31,-0.539 2.004,-0.463 3.237,-0.463 1.233,0 2.543,0.077 3.468,0.694 0.925,0.617 1.464,2.004 1.773,2.775 0.308,0.771 0,1.233 -0.617,1.541 -0.54,0.308 -0.616,0.154 -1.156,-0.848 -0.54,-1.002 -1.002,-2.004 -3.7,-2.004 -2.697,0 -3.545,0.925 -4.855,2.004 -1.31,1.079 -1.773,1.464 -2.235,0.848 -0.462,-0.616 -0.307,-1.233 0.54,-2.004 z M 88.8,90.35 c -2.775,-0.231 -8.324,-8.863 -11.869,-9.017 -4.47,-0.154 -14.181,9.325 -21.811,9.325 -4.624,0 -6.011,-0.694 -7.553,-1.695 -2.312,-1.619 -3.468,-4.085 -3.391,-7.476 0.077,-6.012 5.703,-11.638 12.794,-11.715 9.017,-0.077 15.26,8.94 19.807,8.863 3.853,-0.077 11.252,-7.63 14.875,-7.63 3.854,0 4.933,4.008 4.933,6.397 0,2.389 -0.771,6.705 -2.62,9.403 -1.851,2.697 -3.007,3.699 -5.165,3.545 z"
     inkscape:connector-curvature="0"
     id="path4" />
</svg>
